src/components/Nav/img/Kalender_hvit.svg

<?xml version="1.0" encoding="UTF-8"?>
<svg width="28px" height="28px" viewBox="0 0 28 28" version="1.1" xmlns="http://www.w3.org/2000/svg" xmlns:xlink="http://www.w3.org/1999/xlink">
    <!-- Generator: Sketch 55.1 (78136) - https://sketchapp.com -->
    <title>Kalender</title>
    <desc>Created with Sketch.</desc>
    <g id="Kalender" stroke="none" stroke-width="1" fill="none" fill-rule="evenodd">
        <g id="Group-32-Copy-4" transform="translate(1.000000, 1.000000)" fill="#FFFFFF">
            <g id="Group-32-Copy">
                <path d="M26.4375,2.25 L22.5,2.25 L22.5,0.5625 C22.5,0.252 22.248,3.80140364e-13 21.9375,3.80140364e-13 L18.5625,3.80140364e-13 C18.252,3.80140364e-13 18,0.252 18,0.5625 L18,2.25 L9,2.25 L9,0.5625 C9,0.252 8.748,3.80140364e-13 8.4375,3.80140364e-13 L5.0625,3.80140364e-13 C4.752,3.80140364e-13 4.5,0.252 4.5,0.5625 L4.5,2.25 L0.5625,2.25 C0.252,2.25 -3.55271368e-15,2.502 -3.55271368e-15,2.8125 L-3.55271368e-15,26.4375 C-3.55271368e-15,26.748 0.252,27 0.5625,27 L26.4375,27 C26.748,27 27,26.748 27,26.4375 L27,2.8125 C27,2.502 26.748,2.25 26.4375,2.25 Z M19.125,1.125 L21.375,1.125 L21.375,4.5 L19.125,4.5 L19.125,1.125 Z M5.625,1.125 L7.875,1.125 L7.875,4.5 L5.625,4.5 L5.625,1.125 Z M4.5,3.375 L4.5,5.0625 C4.5,5.373 4.752,5.625 5.0625,5.625 L8.4375,5.625 C8.748,5.625 9,5.373 9,5.0625 L9,3.375 L18,3.375 L18,5.0625 C18,5.373 18.252,5.625 18.5625,5.625 L21.9375,5.625 C22.248,5.625 22.5,5.373 22.5,5.0625 L22.5,3.375 L25.875,3.375 L25.875,25.5890389 L1.125,25.5890389 L1.125,3.375 L4.5,3.375 Z" id="Combined-Shape-Copy-3" stroke="#FFFFFF" stroke-width="0.3"></path>
                <rect id="Rectangle" x="5.4" y="11.5714286" width="2.31428571" height="2.31428571" rx="0.5"></rect>
                <rect id="Rectangle-Copy-17" x="5.4" y="17.7428571" width="2.31428571" height="2.31428571" rx="0.5"></rect>
                <rect id="Rectangle-Copy-15" x="12.3428571" y="11.5714286" width="2.31428571" height="2.31428571" rx="0.5"></rect>
                <rect id="Rectangle-Copy-18" x="12.3428571" y="17.7428571" width="2.31428571" height="2.31428571" rx="0.5"></rect>
                <rect id="Rectangle-Copy-16" x="19.2857143" y="11.5714286" width="2.31428571" height="2.31428571" rx="0.5"></rect>
                <rect id="Rectangle-Copy-19" x="19.2857143" y="17.7428571" width="2.31428571" height="2.31428571" rx="0.5"></rect>
            </g>
        </g>
    </g>
</svg>

<svg width="28" height="28" xmlns="http://www.w3.org/2000/svg">
    <g transform="translate(1 1)" fill="#FFF" fill-rule="evenodd">
        <path d="M26.438 2.25H22.5V.562A.563.563 0 0 0 21.937 0h-3.375A.563.563 0 0 0 18 .563V2.25H9V.562A.563.563 0 0 0 8.437 0H5.063A.563.563 0 0 0 4.5.563V2.25H.562A.563.563 0 0 0 0 2.813v23.625c0 .31.252.562.563.562h25.875c.31 0 .562-.252.562-.563V2.813a.563.563 0 0 0-.563-.562zm-7.313-1.125h2.25V4.5h-2.25V1.125zm-13.5 0h2.25V4.5h-2.25V1.125zM4.5 3.375v1.688c0 .31.252.562.563.562h3.375c.31 0 .562-.252.562-.563V3.375h9v1.688c0 .31.252.562.563.562h3.375c.31 0 .562-.252.562-.563V3.375h3.375v22.214H1.125V3.375H4.5z"
              stroke="#FFF" stroke-width=".3"/>
        <rect x="5.4" y="11.571" width="2.314" height="2.314" rx=".5"/>
        <rect x="5.4" y="17.743" width="2.314" height="2.314" rx=".5"/>
        <rect x="12.343" y="11.571" width="2.314" height="2.314" rx=".5"/>
        <rect x="12.343" y="17.743" width="2.314" height="2.314" rx=".5"/>
        <rect x="19.286" y="11.571" width="2.314" height="2.314" rx=".5"/>
        <rect x="19.286" y="17.743" width="2.314" height="2.314" rx=".5"/>
    </g>
</svg>
